!!!!SEGMENT: fullscore
!!!OTL: 1
**kern	**text	**kern	**text	**kern	**text	**kern	**text	**kern	**text	**kern	**text
*part6	*part6	*part5	*part5	*part4	*part4	*part3	*part3	*part2	*part2	*part1	*part1
*staff6	*staff6	*staff5	*staff5	*staff4	*staff4	*staff3	*staff3	*staff2	*staff2	*staff1	*staff1
*I"BASSUS	*	*I"BASSUS	*	*I"TENOR	*	*I"5ta Vox Vagus	*	*I"ALTUS	*	*I"CANTUS	*
*I'B	*	*I'B	*	*I'T	*	*I'V	*	*I'A	*	*I'C	*
*clefF4	*	*clefF4	*	*clefGv2	*	*clefGv2	*	*clefGv2	*	*clefG2	*
*k[]	*	*k[]	*	*k[]	*	*k[]	*	*k[]	*	*k[]	*
*M2/2	*	*M2/2	*	*M2/2	*	*M2/2	*	*M2/2	*	*M2/2	*
*met(c|)	*	*met(c|)	*	*met(c|)	*	*met(c|)	*	*met(c|)	*	*met(c|)	*
=1	=1	=1	=1	=1	=1	=1	=1	=1	=1	=1	=1
1A	Ag-	1A	Ag-	1c	Ag-	1r	.	1e	Ag-	1r	.
=2	=2	=2	=2	=2	=2	=2	=2	=2	=2	=2	=2
2G	-nus	2G	-nus	2B	-nus	2r	.	2e	-nus	1r	.
2F	De-	2F	De-	2A	De-	[2A	Ag-	2f	De-	.	.
=3	=3	=3	=3	=3	=3	=3	=3	=3	=3	=3	=3
1E	-i,	1E	-i,	1B	-i,	4A]	.	2B	-i,	1r	.
.	.	.	.	.	.	4G	-nus	.	.	.	.
.	.	.	.	.	.	2G	De-	2e	Ag-	.	.
=4	=4	=4	=4	=4	=4	=4	=4	=4	=4	=4	=4
1r	.	1r	.	4A	Ag-	2F	.	4.c	.	1a	Ag-
.	.	.	.	4A	-nus	.	.	.	.	.	.
.	.	.	.	.	.	.	.	8d	.	.	.
.	.	.	.	2c	De-	[2E	-i,	[2e	.	.	.
=5	=5	=5	=5	=5	=5	=5	=5	=5	=5	=5	=5
*	*	*	*	*	*	*	*	*	*	*lig	*
4r	.	4r	.	2B	.	2E]	.	2e]	.	2g	-nus
4E	Ag-	4E	Ag-	.	.	.	.	.	.	.	.
4F	-nus	4F	-nus	4A	.	2r	.	4c	.	2a	.
4D	De-	4D	De-	[4d	.	.	.	4f	.	.	.
*	*	*	*	*	*	*	*	*	*	*Xlig	*
=6	=6	=6	=6	=6	=6	=6	=6	=6	=6	=6	=6
2A	.	2A	.	4d]	.	1r	.	4.e	.	2cc	De-
.	.	.	.	4c	.	.	.	.	.	.	.
.	.	.	.	.	.	.	.	8f	.	.	.
4G	.	4G	.	8dL	.	.	.	4g	.	4b	.
.	.	.	.	8c	.	.	.	.	.	.	.
4A	.	4A	.	8B	.	.	.	4e	-nus	[4a	.
.	.	.	.	8AJ	.	.	.	.	.	.	.
=7	=7	=7	=7	=7	=7	=7	=7	=7	=7	=7	=7
2E	.	2E	.	2B	.	4r	.	4.e	De-	4a]	.
.	.	.	.	.	.	4.E	Ag-	.	.	4g#X	.
.	.	.	.	.	.	.	.	8d	.	.	.
4AA	-i,	4AA	-i,	[2A	-i,	.	.	4c	.	2a	-i,
.	.	.	.	.	.	8D	-nus	.	.	.	.
4D	Ag-	4D	Ag-	.	.	4F	De-	4d	.	.	.
!!pagebreak:original
=8	=8	=8	=8	=8	=8	=8	=8	=8	=8	=8	=8
4C	-nus	4C	-nus	[[1A]	.	4E	.	4e	-i,	4r	.
2D	De-	2D	De-	.	.	2F	.	4d	Ag-	4a	Ag-
.	.	.	.	.	.	.	.	4d	-nus	8aL	-nus
.	.	.	.	.	.	.	.	.	.	8g	.
8CL	.	8CL	.	.	.	8EL	.	4d	De-	8a	.
8BBJ	.	8BBJ	.	.	.	8DJ	.	.	.	8bJ	.
=9	=9	=9	=9	=9	=9	=9	=9	=9	=9	=9	=9
2AA	.	2AA	.	2A]]	.	4E	-i,	8cL	.	4.cc	De-
.	.	.	.	.	.	.	.	8d	.	.	.
.	.	.	.	.	.	4E	Ag-	8e	.	.	.
.	.	.	.	.	.	.	.	8cJ	.	8b	.
[2D	-i,	[2D	-i,	2r	.	4F	-nus	8dL	.	8aL	.
.	.	.	.	.	.	.	.	8eJ	.	8gJ	.
.	.	.	.	.	.	[4D	De-	[4f	.	[4a	.
=10	=10	=10	=10	=10	=10	=10	=10	=10	=10	=10	=10
1D]	.	1D]	.	4r	.	8DL]	.	8fL]	.	8aL]	.
.	.	.	.	.	.	8EJ	.	8eJ	.	8gJ	.
.	.	.	.	4D	Ag-	8FL	.	8dL	.	8fL	.
.	.	.	.	.	.	8GJ	.	8cJ	.	8eJ	.
.	.	.	.	8DL	-nus	8AL	.	2d	-i,	2f	.
.	.	.	.	8E	.	8G	.	.	.	.	.
.	.	.	.	8F	.	8A	.	.	.	.	.
.	.	.	.	8GJ	.	8BJ	.	.	.	.	.
=11	=11	=11	=11	=11	=11	=11	=11	=11	=11	=11	=11
4r	.	4r	.	8AL	.	4.c	.	4r	.	4e	-i,
.	.	.	.	8G	.	.	.	.	.	.	.
4AA	Ag-	4AA	Ag-	8A	.	.	.	4.c	qui	4e	Ag-
.	.	.	.	8BJ	.	8B	.	.	.	.	.
8AAL	-nus	8AAL	-nus	2c	.	2A	.	.	.	4.e	-nus
8BB	.	8BB	.	.	.	.	.	8d	.	.	.
8C	.	8C	.	.	.	.	.	[4e	.	.	.
8DJ	.	8DJ	.	.	.	.	.	.	.	8f	.
=12	=12	=12	=12	=12	=12	=12	=12	=12	=12	=12	=12
4E	.	4E	.	4B	.	4G	.	4e]	.	4g#X	.
4F	.	4F	.	4A	.	4D	.	4d	tol-	2a	De-
2E	De-	2E	De-	2B	De-	4G	.	2e	-lis	.	.
.	.	.	.	.	.	4E	.	.	.	4g#X	.
=13	=13	=13	=13	=13	=13	=13	=13	=13	=13	=13	=13
1AA	-i,	1AA	-i,	2A	-i,	2F	.	4c	pec-	4a	-i,
.	.	.	.	.	.	.	.	2d	-ca-	4a	qui
.	.	.	.	4r	.	2E	-i,	.	.	4a	tol-
.	.	.	.	4A	Ag-	.	.	4c	.	4cc	-lis
=14	=14	=14	=14	=14	=14	=14	=14	=14	=14	=14	=14
1r	.	1r	.	4G	-nus	4r	.	4d	-ta	4b	pec-
.	.	.	.	4A	De-	4D	qui	4.f	mun-	4a	-ca-
.	.	.	.	4B	.	4G	tol-	.	.	2g	-ta
.	.	.	.	.	.	.	.	8e	.	.	.
.	.	.	.	[4c	.	4E	-lis	[4e	.	.	.
!!linebreak:original
=15	=15	=15	=15	=15	=15	=15	=15	=15	=15	=15	=15
2r	.	2r	.	4c]	.	4F	pec-	4e]	.	4.a	mun-
.	.	.	.	8BL	.	4F	-ca-	4d	.	.	.
.	.	.	.	8AJ	.	.	.	.	.	8b	.
2C	qui	2C	qui	4G	.	4E	-ta	2e	-di,	2cc	-di,
.	.	.	.	4C	.	[4c	mun-	.	.	.	.
=16	=16	=16	=16	=16	=16	=16	=16	=16	=16	=16	=16
4C	tol-	4C	tol-	2G	-i,	4c]	.	4r	.	4r	.
4C	-lis	4C	-lis	.	.	8BL	.	4e	pec-	4g	qui
.	.	.	.	.	.	8AJ	.	.	.	.	.
4G	pec-	4G	pec-	2r	.	2B	.	4.d	-ca-	4g	tol-
4G	-ca-	4G	-ca-	.	.	.	.	.	.	4g	-lis
.	.	.	.	.	.	.	.	8e	-ta	.	.
=17	=17	=17	=17	=17	=17	=17	=17	=17	=17	=17	=17
4F	-ta	4F	-ta	2A	qui	2c	.	1f	mun-	2a	pec-
2F	mun-	2F	mun-	.	.	.	.	.	.	.	.
.	.	.	.	4A	tol-	2d	.	.	.	2a	-ca-
4D	.	4D	.	4A	-lis	.	.	.	.	.	.
=18	=18	=18	=18	=18	=18	=18	=18	=18	=18	=18	=18
4E	.	4E	.	2c	pec-	4G	.	2e	-di,	4g	-ta
4C	.	4C	.	.	.	2A	.	.	.	4e	mun-
4D	.	4D	.	2B	-ca-	.	.	2r	.	4f	.
4E	.	4E	.	.	.	4G	.	.	.	[4e	.
=19	=19	=19	=19	=19	=19	=19	=19	=19	=19	=19	=19
2AA	-di,	2AA	-di,	4A	-ta	4A	.	2A	qui	8eL]	.
.	.	.	.	.	.	.	.	.	.	8cJ	.
.	.	.	.	4e	mun-	4E	.	.	.	2cc	.
2r	.	2r	.	4c	.	2F	.	4A	tol-	.	.
.	.	.	.	4d	.	.	.	4A	-lis	8bL	.
.	.	.	.	.	.	.	.	.	.	8aJ	.
=20	=20	=20	=20	=20	=20	=20	=20	=20	=20	=20	=20
2C	do-	2C	do-	4.e	.	4E	-di,	4.c	pec-	1g	-di,
.	.	.	.	.	.	4E	pec-	.	.	.	.
.	.	.	.	8d	.	.	.	8d	.	.	.
4C	-na	4C	-na	8cL	.	4G	-ca-	8eL	-ca-	.	.
.	.	.	.	8BJ	.	.	.	8fJ	-ta	.	.
4C	no-	4C	no-	4c	.	4G	-ta	[4e	mun-	.	.
=21	=21	=21	=21	=21	=21	=21	=21	=21	=21	=21	=21
2D	-bis	2D	-bis	2A	-di,	2F	mun-	4e]	.	4r	.
.	.	.	.	.	.	.	.	4d	.	4a	qui
*lig	*	*lig	*	*	*	*	*	*	*	*	*
[2AA@	pa-	2AA@	pa-	4r	.	[2E	-di,	[2e	-di,	4a	tol-
.	.	.	.	4A	qui	.	.	.	.	[4cc	-lis
!!pagebreak:original
=22	=22	=22	=22	=22	=22	=22	=22	=22	=22	=22	=22
2AA]@	.	2E@	.	4A	tol-	2E]	.	[[1e]	.	8ccL]	.
.	.	.	.	.	.	.	.	.	.	8bJ	pec-
.	.	.	.	4c	-lis	.	.	.	.	4a	-ca-
[2E@	.	2AA@	-cem,	4B	pec-	2r	.	.	.	4g#X	-ta
.	.	.	.	4A	-ca-	.	.	.	.	[4a	mun-
*	*	*Xlig	*	*	*	*	*	*	*	*	*
=23	=23	=23	=23	=23	=23	=23	=23	=23	=23	=23	=23
2E]@	.	2r@	.	4B	-ta	2r	.	2e]]	.	4a]	.
.	.	.	.	4B	mun-	.	.	.	.	4g#X	.
*Xlig	*	*	*	*	*	*	*	*	*	*	*
2AA@	cem	4r@	.	2A	-di,	4r	.	4r	.	2a	.
.	.	4A@	do-	.	.	4A	do-	4c	do-	.	.
=24	=24	=24	=24	=24	=24	=24	=24	=24	=24	=24	=24
1r@	.	4G#i@	-na	1r	.	4G	-na	4B	-na	[1e	-di,
.	.	4.A@	no-	.	.	4.A	no-	4.c	no-	.	.
.	.	8Gni@	.	.	.	8G	.	8B	.	.	.
.	.	4F@	.	.	.	4F	.	4A	.	.	.
=25	=25	=25	=25	=25	=25	=25	=25	=25	=25	=25	=25
4r@	.	4E@	.	1r	.	4E	-bis	4G	.	1e]	.
4A@	do-	4C@	-bis	.	.	4.e	pa-	4A	.	.	.
4G#Xi@	-na	2E@	pa-	.	.	.	.	4E	-bis	.	.
.	.	.	.	.	.	8d	.	.	.	.	.
[4A@	no-	.	.	.	.	8cL	.	[4e	pa-	.	.
.	.	.	.	.	.	8BJ	.	.	.	.	.
=26	=26	=26	=26	=26	=26	=26	=26	=26	=26	=26	=26
8AL]@	.	1AA@	.	2r	.	4A	.	4e]	.	4r	.
8GJ@	.	.	.	.	.	.	.	.	.	.	.
4F@	.	.	.	.	.	4.c	.	4A	.	4a	do-
4E@	.	.	.	4r	.	.	.	2e	-cem,	4g#Xi	-na
.	.	.	.	.	.	8B	.	.	.	.	.
4C@	-bis	.	.	4c	do-	[4A	.	.	.	4a	no-
=27	=27	=27	=27	=27	=27	=27	=27	=27	=27	=27	=27
4D@	pa-	2E@	.	4B	-na	4A]	.	1r	.	4f	-bis
4E@	.	.	.	2c	no-	4G#X	.	.	.	2e	pa-
*	*	*	*	*	*	*lig	*	*	*	*	*
2AA@	.	2AA@	-cem,	.	.	2A	-cem,	.	.	.	.
.	.	.	.	8BL	.	.	.	.	.	4f	.
.	.	.	.	8AJ	.	.	.	.	.	.	.
=28	=28	=28	=28	=28	=28	=28	=28	=28	=28	=28	=28
2E@	-cem	1r@	.	4.G	-bis	2c	.	2e	do-	2.g	.
.	.	.	.	8A	.	.	.	.	.	.	.
*	*	*	*	*	*	*Xlig	*	*	*	*	*
2r@	.	.	.	4B	.	4G	do-	4d	-na	.	.
.	.	.	.	[4c	pa-	4E	-na	4e	no-	8fL	.
.	.	.	.	.	.	.	.	.	.	8gJ	.
!!pagebreak:original
=29	=29	=29	=29	=29	=29	=29	=29	=29	=29	=29	=29
2r	.	2r	.	4c]	.	4F	no-	2d	-bis	4a	.
.	.	.	.	4B	.	4G	.	.	.	4g	.
4r	.	4r	.	2c	-cem,	4C	-bis,	4.c	pa-	2e	-cem,
4A	do-	4A	do-	.	.	4c	do-	.	.	.	.
.	.	.	.	.	.	.	.	8d	.	.	.
=30	=30	=30	=30	=30	=30	=30	=30	=30	=30	=30	=30
4G#X	-na	4G#Xi	-na	1r	.	4B	-na	2e	-cem,	2r	.
4.A	no-	4.A	no-	.	.	4.c	no-	.	.	.	.
.	.	.	.	.	.	.	.	2r	.	4r	.
8Gn	.	8Gni	.	.	.	8B	.	.	.	.	.
4F	.	4F	.	.	.	4A	.	.	.	4a	do-
=31	=31	=31	=31	=31	=31	=31	=31	=31	=31	=31	=31
4E	.	4E	.	4r	.	4B	-bis	2r	.	4g	-na
4C	-bis	4C	-bis	4c	do-	2A	pa-	.	.	4e	no-
4D	pa-	4D	pa-	4B	-na	.	.	4r	.	4f	-bis
4E	.	4E	.	[4c	no-	4G#X	.	4e	do-	4e	pa-
=32	=32	=32	=32	=32	=32	=32	=32	=32	=32	=32	=32
2AA	-cem	2AA	-cem,	8cL]	.	2A	.	4.c	-na	1e	-cem,
.	.	.	.	8BJ	-bis	.	.	.	.	.	.
.	.	.	.	2A	pa-	.	.	.	.	.	.
.	.	.	.	.	.	.	.	8d	no-	.	.
2r	.	2r	.	.	.	2E	-cem,	4B	-bis	.	.
.	.	.	.	4G#X	.	.	.	4B	pa-	.	.
=33	=33	=33	=33	=33	=33	=33	=33	=33	=33	=33	=33
2AA	do-	2AA	do-	4A	-cem,	4r	.	2A	-cem,	2r	.
.	.	.	.	4c	do-	4A	do-	.	.	.	.
4E	.	4E	.	4B	-na	4G#X	-na	2r	.	4r	.
4AA	-na	4AA	-na	4c	no-	4A	no-	.	.	4cc	do-
=34	=34	=34	=34	=34	=34	=34	=34	=34	=34	=34	=34
2E	no-	2E	no-	2.G	-bis	4E	-bis	1r	.	4b	-na
.	.	.	.	.	.	4.e	pa-	.	.	4.cc	no-
4C	.	4C	.	.	.	.	.	.	.	.	.
.	.	.	.	.	.	8c	.	.	.	8b	-bis
4F	-bis	4F	-bis	4A	.	4d	.	.	.	[4a	pa-
=35	=35	=35	=35	=35	=35	=35	=35	=35	=35	=35	=35
2E	pa-	2E	pa-	2B	pa-	4e	-cem,	2r	.	4a]	.
.	.	.	.	.	.	2E	do-	.	.	4g#X	.
4AA	-cem,	4AA	-cem,	[2A	-cem.	.	.	2e	do-	[2a;	-cem.
4AA	do-	4AA	do-	.	.	4E	-na	.	.	.	.
!!linebreak:original
=36	=36	=36	=36	=36	=36	=36	=36	=36	=36	=36	=36
4D	-na	4D	-na	[[1A]	.	4F	no-	4d	-na	[[1a]	.
4AA	no-	4AA	no-	.	.	4C	-bis	4.e	no-	.	.
*	*	*	*	*	*	*lig	*	*	*	*	*
2C	-bis	2C	-bis	.	.	2E	pa-	.	.	.	.
.	.	.	.	.	.	.	.	8d	.	.	.
.	.	.	.	.	.	.	.	[4c	.	.	.
=37	=37	=37	=37	=37	=37	=37	=37	=37	=37	=37	=37
2D	pa-	2D	pa-	[1A_]	.	2F	.	4c]	.	[1a_]	.
.	.	.	.	.	.	.	.	4A	-bis	.	.
*	*	*	*	*	*	*Xlig	*	*	*	*	*
[2AA	-cem.	[2AA;	-cem.	.	.	[2E;	-cem.	4.c	pa-	.	.
.	.	.	.	.	.	.	.	8d	.	.	.
=38	=38	=38	=38	=38	=38	=38	=38	=38	=38	=38	=38
1AA]	.	1AA]	.	1A]]	.	1E]	.	1e;	-cem.	1a]]	.
==	==	==	==	==	==	==	==	==	==	==	==
*-	*-	*-	*-	*-	*-	*-	*-	*-	*-	*-	*-
!!!system-decoration: [(s1,s2,s3,s4,{s5,s6})]
!!!RDF**kern: @ = marked note
!!!filter-v2: kernview -v 2-6
!!!filter-v1: kernview -v 1,3-6
!!!filter-b: kernview -v 1,2
!!!xfilter: filter -v v2
!!!RDF**kern: i = editorial accidental
